wdn/templates_4.0/images/infographics/dollar-brand.svg

<svg xmlns="http://www.w3.org/2000/svg" width="180" height="142"><path fill="#c00" d="M125.3 95.1c0-14.6-11.8-20.1-23.5-23.399-11.9-3.301-23.6-4.501-23.6-10.701 0-5.3 5.7-6.9 10.2-6.9 6.5 0 13.4 2.4 13.1 9.8h21.1c-.1-13.7-9.3-21.6-20.699-24.6v-10.9h-20.501v10.1c-12.5 2.2-24.3 9.5-24.3 23.9 0 14.9 12.1 20.1 23.7 23.4 11.7 3.3 23.3 4.601 23.3 11.8 0 6-6.6 8.301-12.899 8.301-9 0-14.9-3.101-15.3-12.601h-21.201c.1 17.5 11.8 26.101 26.7 28.3v10.4h20.6v-10.9c12.9-2.7 23.3-10.2 23.3-26z"/></svg>

<?xml version="1.0" encoding="utf-8"?>
<!-- Generator: Adobe Illustrator 15.0.2, SVG Export Plug-In . SVG Version: 6.00 Build 0)  -->
<!DOCTYPE svg PUBLIC "-//W3C//DTD SVG 1.1//EN" "http://www.w3.org/Graphics/SVG/1.1/DTD/svg11.dtd">
<svg version="1.1" id="Layer_1" xmlns="http://www.w3.org/2000/svg" xmlns:xlink="http://www.w3.org/1999/xlink" x="0px" y="0px"
	 width="180px" height="142px" viewBox="0 0 180 142" style="enable-background:new 0 0 180 142;" xml:space="preserve">
<style type="text/css">
<![CDATA[
	.st0{fill:#CC0000;}
]]>
</style>
<path class="st0" d="M125.3,95.1c0-14.6-11.8-20.1-23.5-23.4C89.9,68.4,78.2,67.2,78.2,61c0-5.3,5.7-6.9,10.2-6.9
	c6.5,0,13.4,2.4,13.1,9.8h21.1c-0.1-13.7-9.3-21.6-20.7-24.6V28.4H81.4v10.1C68.9,40.7,57.1,48,57.1,62.4
	c0,14.9,12.1,20.1,23.7,23.4c11.7,3.3,23.3,4.6,23.3,11.8c0,6-6.6,8.3-12.9,8.3c-9,0-14.9-3.1-15.3-12.6H54.7
	c0.1,17.5,11.8,26.1,26.7,28.3V132H102v-10.9C114.9,118.4,125.3,110.9,125.3,95.1z"/>
</svg>
